X: 15
T:Jigs 5 - With my Shellelagh under my arm
T:Feathers
M:6/8
K:G
B/A/ | "G"G2G G2g | "C"gfe "G/B"d3 | "Am"c2B A2G | "D"FGA DEF|
"G"G2G G2g | "C"gfe "G/B"d2c | "C"BAG "D"DGF | "G"G3 GFE :|
"D"D2D D2d | dcB "Am"c3 | "D"D2D D2c | "Am"cBA "D7"B2A |
"G"G2G G2g | "C"gfe "G/B"d2c | "C"BAG "D7"AGF|"G"G3 G2||
T:With my Shellelagh under my arm
M:6/8
K:G
def | "G"g2G AGF | "G/B"G3 g2f | "C"e2c "Am"g2e | "D"d3 e2f |
"C"g2f "Am"g2e | "G"d2B A2G |1 "C"B3 "Am"B3 | "D"A3 def :|2 "C"A3 "D"A3 | "G"G3-G2 ||
G | "D"A2^G A2B | "Am"c2B "D"c2A | "G"B2_B =B2c | "G/B"d3-d3 |
"A"c2=c ^c2d | "em"e2f g2^g | "A"a2=g f2e | "D"d3 def |
"G"g2G AGF | "G/B"G3 g2f | "C"e2c "Am"g2e | "D"d3 e2f |
"C"g2f "Am"g2e | "G"d2B A2G | "C"A3 "D"A3 | "G"G3-G2 ||
%%newpage

